X: 25002
T: Maid On The Green, The
R: jig
M: 6/8
K: Gmajor
gfg e2 d|Bge dBA|BGG dGG|BAA AB/c/d|
gfg e2 d|BeB dBA|BGG dBA|AGF G:|
|:gfg afd|gfg abc'|bag agf|gef g2 a|
[1 bg/a/b afa|gfg e2 d|BeB dBA|AGF G:|
[2 bc'b ac/b/a|gea gdB|GeB dBA|AGF G||

